X:179
T:Wood Nunwich Fair. RH.179
T:Nunrich Fair,aka. RH.179
R:Jig
S:Rev.R.Harrison’s MS,c1815,Cumbria
O:England
A:Temple Sowerby,Cumbria
Z:vmp.Simon Wilson. Review PJH, 2008.
M:6/8
L:1/8
Q:3/8=120
K:G
c|BGB def|gfe dcB|\
cAA eAA|cAA A2c|!
BGB def|gfe dcB|cAg faf|gdB G2:|!
|:c|BGG d2B|cAA e2c|BGB d2f|ecA A2c|!
BGB d2B|cAA e2c|BGB def|gdB G2:|!
|:d|gfe dcB|gfg dcB|gfe dcB|cAA A2d|!
gfe dcB|gfg dcB|cAg faf|gdB G2:|

